**kern	**kern	**kern	**kern	**kern
*clefF4	*clefC3	*clefF	*clefF	*clefF
*k[]	*k[]	*k[]	*k[]	*k[]
*C:	*C:	*C:	*C:	*C:
*M4/4	*M4/4	*M4/4	*M4/4	*M4/4
2..r	2..r	2..r	2..r	2..r
8B	8g	8dd	8r	8gg
=1	=1	=1	=1	=1
4c	4cc	4g	1r	4ee
8F	8dd	8a	.	8ff
8G	8b	8f 8G	.	8dd
4C	4cc	4e 4G	.	4cc
8r	8r	8r	.	8r
8BB	8d	8G	.	8g
=2	=2	=2	=2	=2
8C	8G	8c	1r	8e
8AA	8c	8e	.	8a
8D	8B	8d	.	8g
8D	8A	8c	.	8f#
4GG	4G	4B	.	4g
4r	8r	8r	.	8r
.	8g	8b	.	8dd
=3	=3	=3	=3	=3
2..r	4e	8cc	1r	8ee
.	.	8b-	.	4gg
.	8f	8a	.	.
.	8d	8b	.	4ff
.	4c	4cc	.	.
.	.	.	.	16ee
.	.	.	.	16dd
.	8r	8r	.	8ee
8E	8G	8c	.	8ccc
=4	=4	=4	=4	=4
8F	8A	8c	1r	8d
8r	8r	8r	.	8r
8G	8B 8d	8G 8f	.	8G 8g
8r	8r	8r	.	8r
4C	4c 4e	4e 4G	.	4c 4e
8r	8r	4r	.	4r
8E	8G	.	.	.
=5	=5	=5	=5	=5
4C	4E	4r	1r	1r
8D	8F	16.r	.	.
.	.	32G	.	.
8GG	8D	16.A	.	.
.	.	32B	.	.
4EE	4C	16.c	.	.
.	.	32d	.	.
.	.	16.e	.	.
.	.	32f	.	.
4r	8r	8g	.	.
.	8e	8g	.	.
=6	=6	=6	=6	=6
1r	4c	4e	1r	4r
.	8d	8f	.	16.r
.	.	.	.	32g
.	8G	8d	.	16.a
.	.	.	.	32b
.	4E	4c	.	16.cc
.	.	.	.	32dd
.	.	.	.	16.ee
.	.	.	.	32ff
.	16.r	8r	.	8gg 8gg
.	32C	.	.	.
.	16.D	[8cc	.	8ccc
.	32E	.	.	.
=7	=7	=7	=7	=7
4r	16.F	8cc]	1r	4aa
.	32G	.	.	.
.	16.A	8ff	.	.
.	32B	.	.	.
16.r	8c	8ee	.	8gg
32CC	.	.	.	.
16.DD	4c	4r	.	8cc
32EE	.	.	.	.
16.FF	.	.	.	4a
32GG	.	.	.	.
16.AA	8f	4c	.	.
32BB	.	.	.	.
8C	8e	.	.	16.g
.	.	.	.	32gg
8C	8g 8G	8e 8cc	.	16.ee
.	.	.	.	32cc
=8	=8	=8	=8	=8
[2CC	4.G 4.f	4.b 4.d	1r	16.b
.	.	.	.	32cc
.	.	.	.	16.dd
.	.	.	.	32ee
.	.	.	.	16.ff
.	.	.	.	32ee
.	8B	8d	.	16.ff
.	.	.	.	32aa
8CC 8C]	8c	8e	.	16.ee
.	.	.	.	32gg
4.r	8d	8f	.	16.dd
.	.	.	.	32ff
.	8e	8g	.	16.cc
.	.	.	.	32gg
.	8g	8e 8cc	.	16.ee
.	.	.	.	32cc
=9	=9	=9	=9	=9
[2C	4.G 4.f	4.b 4.d	1r	16.b
.	.	.	.	32cc
.	.	.	.	16.dd
.	.	.	.	32ee
.	.	.	.	16.ff
.	.	.	.	32ee
.	8B	8d	.	16.ff
.	.	.	.	32aa
8C 4.CC]	8c	8e	.	16.ee
.	.	.	.	32gg
4.r	8d	8f	.	16.dd
.	.	.	.	32ff
.	8e	8g	.	16.cc
.	.	.	.	32gg
.	8g	8e 8cc	.	16.ee
.	.	.	.	32cc
=10	=10	=10	=10	=10
[2CC	4.G 4.f	4.b 4.d	1r	16.b
.	.	.	.	32cc
.	.	.	.	16.dd
.	.	.	.	32ee
.	.	.	.	16.ff
.	.	.	.	32gg
.	8d	8f	.	16.aa
.	.	.	.	32bb
8CC 4.C]	8e	8g	.	16.ccc
.	.	.	.	32ddd
4.r	8d	8f	.	16.eee
.	.	.	.	32fff
.	16.c	16.e	.	16.ggg
.	32e	32gg	.	32ggg
.	16.d	16.ff	.	16.ggg
.	32c	32ee	.	32ggg
=11	=11	=11	=11	=11
16.GG	16.B	16.dd	1r	16.ggg
32G	32f	32aa	.	32ggg
16.A	16.e	16.gg	.	16.ggg
32B	32d	32ff	.	32ggg
8c	16.c	16.ee	.	16.ggg
.	32e	32gg	.	32ggg
8r	16.d	16.ff	.	16.ggg
.	32c	32ee	.	32ggg
16.GG	16.B	16.dd	.	16.ggg
32G	32f	32aa	.	32ggg
16.A	16.e	16.gg	.	16.ggg
32B	32d	32ff	.	32ggg
8c	16.c	16.ee	.	16.ggg
.	32e	32gg	.	32ggg
8r	16.d	16.ff	.	16.ggg
.	32c	32ee	.	32ggg
=12	=12	=12	=12	=12
16.GG	16.B	16.dd	1r	16.ggg
32GG	32G	32gg	.	32gg
16.GG	16.c	16.ee	.	16.ggg
32GG	32G	32gg	.	32gg
16.GG	16.B	16.dd	.	16.ggg
32GG	32G	32gg	.	32gg
16.GG	16.c	16.ee	.	16.ggg
32GG	32G	32gg	.	32gg
4GG	4B	4dd	.	4ggg
8r	8r	4r	.	4r
8B	8d	.	.	.
=13	=13	=13	=13	=13
4G	4B	4.r	1r	4.r
8A	8c	.	.	.
8D	8A	8ff#	.	8ddd
4G	4G	4gg	.	4bb
4r	8r	8aa	.	8ccc
.	8dd	8ff#	.	8aa
=14	=14	=14	=14	=14
1r	4b	8gg	1r	8bb
.	.	8ff	.	4ddd
.	8cc	8ee	.	.
.	8a	8ff#	.	4ccc
.	4.g	8gg	.	.
.	.	8dd	.	16bb
.	.	.	.	16aa
.	.	8gg	.	8bb
.	8d#	8ff#	.	[8aa
=15	=15	=15	=15	=15
2..r	4.e	8b	1r	8aa]
.	.	16cc#	.	16gg
.	.	16dd#	.	16ff#
.	.	8ee	.	8gg
.	8B	8dd	.	4ff
.	4.c	8g	.	.
.	.	16a	.	16ee
.	.	16b	.	16dd#
.	.	8cc	.	8ee
8BB-	8d	8g	.	8dd
=16	=16	=16	=16	=16
4AA	2e	2g	1r	2cc#
8BB-	.	.	.	.
8GG	.	.	.	.
2FF#	[2d	4a	.	4cc
.	.	8cc	.	8ee
.	.	[8a	.	8cc
=17	=17	=17	=17	=17
4GG	4d]	8a]	1r	4b
.	.	8d	.	.
8BB	8G	8g	.	8dd
8GG	8g	8dd	.	8b
8EE	4g	4cc#	.	4.gg
8E	.	.	.	.
8C#	4e	8ee	.	.
8AA	.	8cc#	.	16aa
.	.	.	.	16gg
=18	=18	=18	=18	=18
16D	4f#	4dd	1r	8ff#
16d	.	.	.	.
16D	.	.	.	8d
16d	.	.	.	.
16D	2r	8r	.	8r
16d	.	.	.	.
16D	.	8bb	.	8ddd
16d	.	.	.	.
16D	.	8.gg#	.	8.bb
16d	.	.	.	.
16D	.	.	.	.
16d	.	32ff#	.	32aa
.	.	32gg#	.	32bb
16D	8r	8aa	.	8ccc
16d	.	.	.	.
16D	8cc	8ff#	.	8aa
16d	.	.	.	.
=19	=19	=19	=19	=19
16D	8b	8.gg	1r	8gg
16d	.	.	.	.
16D	8cc#	.	.	8bb
16d	.	32aa	.	.
.	.	32gg	.	.
16D	8dd	8ff#	.	8aa
16d	.	.	.	.
16D	8dd	8.dd	.	8bb
16d	.	.	.	.
16D	8.b	.	.	8.gg#
16d	.	16ff	.	.
16D	.	16ee	.	.
16d	32a	16dd	.	32ff#
.	32b	.	.	32gg#
16D	8cc	8cc	.	8aa
16d	.	.	.	.
16D	8a	8cc	.	16ff#
16d	.	.	.	32ee
.	.	.	.	32ff#
=20	=20	=20	=20	=20
16D	8b	8b	1r	8gg
16d	.	.	.	.
16D	8g	8b-	.	16cc#
16d	.	.	.	32b
.	.	.	.	32cc#
8D	8f#	16.a	.	8dd
.	.	32dd	.	.
8B	8d	16.dd	.	8gg
.	.	32dd	.	.
8.c	8.a	16.dd	.	8.ff#
.	.	32dd	.	.
.	.	16.dd	.	.
32B	32g	.	.	32ee
32c	32a	32dd	.	32ff#
8B	8g	16.dd	.	8gg
.	.	32dd	.	.
8B	8g	16.dd	.	8gg
.	.	32dd	.	.
=21	=21	=21	=21	=21
8.c	8.a	16.dd	1r	8.ff#
.	.	32dd	.	.
.	.	16.dd	.	.
32B	32g	.	.	32ee
32c	32a	32dd	.	32ff#
8B	8g	16.dd	.	8gg
.	.	32dd	.	.
8B	8g	16.dd	.	8gg
.	.	32dd	.	.
8.c	8.a	16.dd	.	8.ff#
.	.	32dd	.	.
.	.	16.dd	.	.
32B	32g	.	.	32ee
32c	32a	32dd	.	32ff#
8B	8g	8dd	.	8gg
8G	8g	8dd	.	8bb
=22	=22	=22	=22	=22
4F#	4a	4d 4dd	2..r	24ccc
.	.	.	.	24aa
.	.	.	.	24ff#
.	.	.	.	24dd
.	.	.	.	24cc
.	.	.	.	24a
8FF#	8a 8d	8d 8cc	.	24f#
.	.	.	.	24a
.	.	.	.	24cc
8FF#	8a 8d	8cc 8d	.	24dd
.	.	.	.	24ff#
.	.	.	.	24aa
8FF#	8a 8d	8cc 8d	.	8ccc
4.r	4.r	4r	.	8r
.	.	.	.	8r
.	.	8e	[8g	8b
=23	=23	=23	=23	=23
1r	2..r	4c	8g]	4.a
.	.	.	16f#	.
.	.	.	16e	.
.	.	8d	8f#	.
.	.	8B	8g#	8b
.	.	8A	4a	4cc
.	.	8e	.	.
.	.	8a	8r	8r
.	[8g	8b	8r	8ee
=24	=24	=24	=24	=24
2..r	8g]	4.a	1r	4cc#
.	16f#	.	.	.
.	16e	.	.	.
.	8f#	.	.	8dd
.	4e	8g	.	8cc
.	.	4.f#	.	4a#
.	16d	.	.	.
.	16c#	.	.	.
.	8d	.	.	8b
[8C	16c#	8e	.	8a
.	16B	.	.	.
=25	=25	=25	=25	=25
8C]	8A	4.d	1r	4f#
16BB	16B	.	.	.
16AA	16A	.	.	.
8BB	8G	.	.	8g
8C#	8G	8G	.	8ee
2D	4G	4B	.	4g
.	8F#	8c	.	8a
.	8c	8A	.	8f#
=26	=26	=26	=26	=26
8GG	16B	16B	1r	4g
.	16G	16d 16B	.	.
8G	16G	16d 16B	.	.
.	16G	16B 16d	.	.
8r	16G	16d 16B	.	8r
.	16G	16d 16B	.	.
16GG	16G	16d 16B	.	8g
16BB	16G	16d 16B	.	.
8D	16D	16d 16c	.	8f#
.	16A	16d 16c	.	.
8f#	16A	16d 16c	.	8cc
.	16A	16d 16c	.	.
8r	16A	16d 16c	.	8b
.	16A	16d 16c	.	.
8f#	16A	16c 16d	.	8a
.	16A	16c 16d	.	.
=27	=27	=27	=27	=27
8g	16B	16d 16B	1r	8g
.	16G	16d 16B	.	.
8GG	16G	16d 16B	.	8b
.	16G	16d 16B	.	.
8r	16G	16d 16B	.	8dd
.	16G	16d 16B	.	.
16GG	16G	16d 16B	.	8gg
16BB	16G	16d 16B	.	.
8D	16D	16d 16c	.	8ff#
.	16A	16c 16d	.	.
8f#	16A	16d 16c	.	8ccc
.	16A	16d 16c	.	.
8r	16A	16d 16c	.	8bb
.	16A	16d 16c	.	.
8f#	16A	16d 16c	.	8aa
.	16A	16c 16d	.	.
=28	=28	=28	=28	=28
8g	16B	16B 16d	1r	8gg
.	16g	16d 16b	.	.
8GG	16g	16b 16d	.	16bb
.	16g	16b 16d	.	16ddd
8r	16g	16b 16d	.	16ggg
.	16g	16b 16d	.	16fff#
16GG	16g	16b 16d	.	16eee
16BB	16g	16b 16d	.	16ddd
8D	16f#	16d 16a	.	16ccc
.	16f#	16d 16a	.	16dd
8F#	16f#	16a 16d	.	16ccc
.	16f#	16a 16d	.	16dd
8A	16f#	16d 16a	.	16ccc
.	16f#	16d 16a	.	16dd
8F#	16f#	16a 16d	.	16ccc
.	16f#	16a 16d	.	16dd
=29	=29	=29	=29	=29
8GG	16g	16b- 16d	1r	16bb-
.	16g	16d 16b-	.	16dd
8G	16g	16b- 16d	.	16bb-
.	16g	16d 16b-	.	16dd
8B-	16g	16d 16b-	.	16bb-
.	16g	16b- 16d	.	16dd
8G	16g	16b- 16d	.	16bb-
.	16g	16b- 16d	.	16dd
8DD	16f#	16a 16d	.	16ccc
.	16f#	16d 16a	.	16dd
8F#	16f#	16a 16d	.	16ccc
.	16f#	16a 16d	.	16dd
8A	16f#	16a 16d	.	16ccc
.	16f#	16d 16a	.	16dd
8F#	16f#	16a 16d	.	16ccc
.	16f#	16a 16d	.	16dd
=30	=30	=30	=30	=30
16G	16g	16b- 16d	1r	16bb-
16G	16g	16d 16b-	.	16gg
16G	16g	16b- 16d	.	16bb-
16G	16g	16d 16b-	.	16ddd
16G	16g	16d 16b-	.	16ggg
16G	16g	16d 16b-	.	16ddd
16G	16g	16d 16b-	.	16bb-
16G	16g	16d 16b-	.	16gg
16D	16f	16b- 16a-	.	16aa-
16D	16f	16b- 16a-	.	16ddd
16D	16f	16a- 16b-	.	16fff
16D	16f	16b- 16a-	.	16ddd
16D	16B-	16b- 16f	.	16aaa-
16D	16B-	16f 16b-	.	16fff
16D	16B-	16f 16b-	.	16ddd
16D	16B-	16f 16b-	.	16aa-
=31	=31	=31	=31	=31
16E-	16e-	16b- 16g	1r	16gg
16E-	16g	16b- 16g	.	16bb-
16E-	16g	16b- 16g	.	16eee-
16E-	16b-	16b- 16g	.	16ggg
16D	16b-	16b- 16f	.	16aa-
16D	16a-	16f 16b-	.	16ddd
16D	16a-	16f 16b-	.	16fff
16D	16f	16b- 16f	.	16aaa-
16E-	16e-	16b- 16g	.	16gg
16E-	16g	16b- 16g	.	16bb-
16E-	16g	16b- 16g	.	16eee-
16E-	16b-	16b- 16g	.	16ggg
16D	16b-	16b- 16f	.	16aa-
16D	16a-	16b- 16f	.	16ddd
16D	16a-	16f 16b-	.	16fff
16D	16f	16b- 16f	.	16aaa-
=32	=32	=32	=32	=32
8E-	8g	16g	1r	16ggg
.	.	16b-	.	16eee-
8D	8b-	16B-	.	16aaa-
.	.	16a-	.	16fff
8E-	8b-	16g	.	16ggg
.	.	16b-	.	16eee-
8D	8b-	16B-	.	16aaa-
.	.	16a-	.	16fff
8E-	8b-	8g	.	8ggg
4r	4.r	4.r	.	4.r
8BB-	.	.	.	.
=33	=33	=33	=33	=33
4GG	4.r	2..r	1r	2..r
8AA-	.	.	.	.
8FF	8B-	.	.	.
[2EE-	4G	.	.	.
.	8A-	.	.	.
.	8F	8d	.	8b-
=34	=34	=34	=34	=34
4.EE-]	4.E-	8e-	1r	4g
.	.	8B-	.	.
.	.	8c	.	8a-
8BB-	8D	8A-	.	8f
4GG	8E-	4B-	.	4.e-
.	4e-	.	.	.
8AA-	.	8c	.	.
8FF	8d	8A-	.	8f
=35	=35	=35	=35	=35
[1EE-	4e-	8G	1r	4.g
.	.	8B-	.	.
.	8B-	8d-	.	.
.	8A-	8c	.	8a-
.	4G	4d-	.	4.b-
.	4A-	4c	.	.
.	.	.	.	8a-
=36	=36	=36	=36	=36
1EE-]	4.B-	1d-	1r	4.g
.	8G	.	.	8b-
.	4.B-	.	.	4.g
.	8G	.	.	8b-
=37	=37	=37	=37	=37
1DD	2B	2d	1r	[2g
.	2A	2c	.	8g]
.	.	.	.	8f#
.	.	.	.	8a
.	.	.	.	8f#
=38	=38	=38	=38	=38
8GG	16G	16B	1r	4g
.	16G	16d 16B	.	.
8G	16G	16d 16B	.	.
.	16G	16d 16B	.	.
8r	16G	16d 16B	.	8r
.	16G	16d 16B	.	.
16GG	16G	16d 16B	.	8g
16BB	16G	16d 16B	.	.
8D	16D	16d 16c	.	8f#
.	16A	16c 16d	.	.
8f#	16A	16c 16d	.	8cc
.	16A	16d 16c	.	.
8r	16A	16d 16c	.	8b
.	16A	16d 16c	.	.
8f#	16A	16d 16c	.	8a
.	16A	16d 16c	.	.
=39	=39	=39	=39	=39
8g	16B	16B 16d	1r	8g
.	16G	16d 16b	.	.
8GG	16G	16b 16d	.	8b
.	16G	16b 16d	.	.
8r	16G	16b 16d	.	8dd
.	16G	16b 16d	.	.
32GG	16G	16b 16d	.	8gg
32AA	.	.	.	.
32BB	16G	16b 16d	.	.
32C	.	.	.	.
8D	16D	16cc 16d	.	8ff#
.	16A	16cc 16d	.	.
8f#	16A	16cc 16d	.	8ccc
.	16A	16cc 16d	.	.
8r	16A	16cc 16d	.	8bb
.	16A	16cc 16d	.	.
8f#	16A	16cc 16d	.	8aa
.	16A	16cc 16d	.	.
=40	=40	=40	=40	=40
8g	16B	16b 16d	1r	16gg
.	16B	16b 16d	.	32aa
.	.	.	.	32bb
8GG	16d	16b 16d	.	32ccc
.	.	.	.	32ddd
.	16d	16d 16b	.	32eee
.	.	.	.	32fff#
8r	16G	16d 16b	.	16ggg
.	16G	16d 16b	.	16fff#
32GG	16B	16d 16b	.	16eee
32AA	.	.	.	.
32BB	16B	16d 16b	.	16ddd
32C	.	.	.	.
8D	16c	8a	.	16ccc
.	16c	.	.	16d
8f#	16A	8a	.	16ccc
.	16A	.	.	16d
8.f#	8D	8.a	.	16ccc
.	.	.	.	16d
.	32d	.	.	16ccc
.	32c	.	.	.
32e	32B	32g	.	16d
32f#	32A	32a	.	.
=41	=41	=41	=41	=41
8g	8G	8b	1r	16bb
.	.	.	.	16d
8g	8b	8G	.	16bb
.	.	.	.	16d
8.g	8.b	8r	.	16bb
.	.	.	.	16d
.	.	32G	.	16bb
.	.	32A	.	.
32f#	32a	32B	.	16d
32g	32b	32c	.	.
8f#	8a	8d	.	16ccc
.	.	.	.	16d
8f#	8d	8a	.	16ccc
.	.	.	.	16d
8.f#	8r	8.a	.	16ccc
.	.	.	.	16d
.	32d	.	.	16ccc
.	32c	.	.	.
32e	32B	32g	.	16d
32f#	32A	32a	.	.
=42	=42	=42	=42	=42
8g	8G	8b	1r	16bb
.	.	.	.	16d
8g	8g	8b 8d	.	16bb
.	.	.	.	16d
8r	8r	8r	.	16ccc
.	.	.	.	16d
8f#	8f#	8a 8d	.	16ccc
.	.	.	.	16d
8r	8r	8r	.	16bb
.	.	.	.	16d
8g	8g	8d 8b	.	16bb
.	.	.	.	16d
8r	8r	8r	.	16ccc
.	.	.	.	16d
8f#	8f#	8a 8d	.	16ccc
.	.	.	.	16d
=43	=43	=43	=43	=43
8g	8g	8b 8d	1r	16bb
.	.	.	.	16gg
8g	8g	8b 8d	.	16bb
.	.	.	.	16ddd
8r	8r	8r	.	8ggg
8B	8B	8b	.	8b
8.c	8.c	8.cc	.	8.cc
32B	32B	32b	.	32b
32c	32c	32cc	.	32cc
8d	8d	8dd	.	8dd
8D	8d	8cc	.	8a 8ff#
=44	=44	=44	=44	=44
8G	8d	8b	1r	8b 8gg
8D	8f#	8cc	.	8dd 8aa
8G	8g	8b	.	8bb 8gg
8D	16c	8ff#	.	8ddd 8dd
.	16A	.	.	.
4GG	4B	4gg	.	4bb 4gg
8r	8r	4r	.	4r
8FF#	8d	.	.	.
=45	=45	=45	=45	=45
4GG	4B	8r	1r	8r
.	.	8f#	.	8dd
8r	8r	4g	.	4b
8F#	8dd	.	.	.
4G	4b	8r	.	8r
.	.	8ff#	.	8ddd
8r	8r	4gg	.	4bb
8FF#	8d	.	.	.
=46	=46	=46	=46	=46
4GG	4B	8r	2..r	8r
.	.	8f#	.	8dd
2r	2r	8g	.	8b
.	.	8g#	.	8ee
.	.	8a	.	8cc
.	.	8a#	.	8ff
8r	8r	8b	.	8dd
8r	8r	8r	8r	8r
=47	=47	=47	=47	=47
8G	8d	8b	1r	8gg 8b
8D	8f#	8cc	.	8aa 8dd
8G	8g	8b	.	8bb 8gg
8D	16c	8ff#	.	8ddd 8dd
.	16A	.	.	.
4GG	4B	4gg	.	4bb 4gg
8r	8r	4r	.	4r
8B	8d	.	.	.
=48	=48	=48	=48	=48
4G	4B	2..r	1r	4r
8A	8c	.	.	16.r
.	.	.	.	32d
8D	8A	.	.	16.e
.	.	.	.	32f#
4BB	4G	.	.	16.g
.	.	.	.	32a
.	.	.	.	16.b
.	.	.	.	32cc
4r	8r	.	.	8dd
.	8B	8d	.	8r
=49	=49	=49	=49	=49
[1EE	4G#	4B	1r	16.r
.	.	.	.	32f
.	.	.	.	16.e
.	.	.	.	32d
.	8A	8c	.	16.c
.	.	.	.	32e
.	8D#	8A	.	16.a
.	.	.	.	32cc
.	8E	8G#	.	16.ee
.	.	.	.	32dd#
.	4G#	8B	.	16.ee
.	.	.	.	32dd#
.	.	8d	.	8ee
.	8d	8f	.	8r
=50	=50	=50	=50	=50
1EE]	4B	4d	1r	16.r
.	.	.	.	32e
.	.	.	.	16.f#
.	.	.	.	32g#
.	8c	8e	.	16.a
.	.	.	.	32b
.	8A	8c	.	16.cc
.	.	.	.	32dd
.	4G#	4B	.	16.ee
.	.	.	.	32dd#
.	.	.	.	16.ee
.	.	.	.	32dd#
.	8B	8d	.	16.ee
.	.	.	.	32dd#
.	8A	8c	.	16.ee
.	.	.	.	32dd#
=51	=51	=51	=51	=51
2.EE	4G#	4B	1r	16.ee
.	.	.	.	32dd#
.	.	.	.	16.ee
.	.	.	.	32dd#
.	8B	8d	.	16.ee
.	.	.	.	32dd#
.	8A	8c	.	16.ee
.	.	.	.	32dd#
.	4G#	4B	.	16.ee
.	.	.	.	32dd#
.	.	.	.	16.ee
.	.	.	.	32dd#
4r	4r	8r	.	8ee
.	.	8dd	.	8ff
=52	=52	=52	=52	=52
8r	8r	4b	1r	4dd
8B	8d	.	.	.
4G#	4B	8r	.	8r
.	.	8cc	.	8ee
8r	8r	4a	.	4cc
8c	8e	.	.	.
4A	4c	8r	.	8r
.	.	8gg	.	8bb-
=53	=53	=53	=53	=53
8r	8r	4ee	1r	4gg
8e	8g	.	.	.
4c#	4e	8r	.	8r
.	.	8cc#	.	8aa
2r	8r	4dd	.	4ff
.	8b-	.	.	.
.	8g	8ee	.	8gg
.	8a	8cc#	.	8ee
=54	=54	=54	=54	=54
2..r	4f	4dd	1r	16dd
.	.	.	.	16cc#
.	.	.	.	16dd
.	.	.	.	16ee
.	4.r	8r	.	8ff
.	.	8b	.	8gg
.	.	4cc	.	4ee
.	8a	.	.	.
.	8f	8dd	.	8ff
8G	[8g	8b	.	8dd
=55	=55	=55	=55	=55
8E	8g]	8cc	1r	8cc
16F	8b	8f	.	8dd
16D	.	.	.	.
8C	8cc	4e	.	8ee
8BB	8d	.	.	8g
4C	4G	2r	.	8e
.	.	.	.	8a
8r	8r	.	.	8g
8D	8c	.	.	8f#
=56	=56	=56	=56	=56
4GG	8B	4.r	1r	4g
.	8e	.	.	.
2r	8d	.	.	8r
.	8c#	8.aa	.	8g
.	4d	.	.	8f
.	.	16ff	.	.
.	.	8dd	.	8b-
8r	8r	4r	.	8a
8E	8d	.	.	8g#
=57	=57	=57	=57	=57
4AA	8c	4.r	1r	4a
.	8f	.	.	.
2.r	8e	.	.	8r
.	8d#	8.bb	.	8a
.	4e	.	.	8g#
.	.	16gg#	.	.
.	.	8dd	.	8ff
.	8r	8cc	.	8ee
.	8E	8b	.	8dd
=58	=58	=58	=58	=58
4.r	8D#	8a	1r	8cc
.	8c	4d#	.	8a
.	8B	.	.	8b
8AA	8A	8d#	.	8cc
8GG#	8E	8e	.	8b
8D	8f	8B	.	8g#
8C	8e	8c	.	8a
8BB	8d	8d	.	8b
=59	=59	=59	=59	=59
8AA	8c	8e	1r	8cc
8GG	8B-	8e	.	8cc#
8FF	8A	8f	.	8dd
8EE	8G	8cc#	.	8ee
4DD	8F	8dd	.	8ff
.	8E	8ee	.	8gg
4r	8D	8ff	.	8aa
.	8dd	[8ff	.	8aa
=60	=60	=60	=60	=60
1r	4b	8ff]	1r	4.gg
.	.	16ee	.	.
.	.	16dd	.	.
.	8cc	8ee	.	.
.	8a	8ff#	.	4ccc
.	4g	4gg	.	.
.	.	.	.	16bb
.	.	.	.	16aa
.	8r	8r	.	8bb
.	8ee	[8gg	.	8bb-
=61	=61	=61	=61	=61
1r	8.cc#	8gg]	1r	4.aa
.	.	16ff	.	.
.	32b	16ee	.	.
.	32cc#	.	.	.
.	8dd	8ff	.	.
.	8b	8gg#	.	4ddd
.	4a	4aa	.	.
.	.	.	.	16ccc
.	.	.	.	16bb
.	8r	8r	.	8ccc
.	8ff#	[8aa	.	8ccc
=62	=62	=62	=62	=62
1r	8.dd#	8aa]	1r	4.bb
.	.	16gg	.	.
.	32cc#	16ff#	.	.
.	32dd#	.	.	.
.	8ee	8gg	.	.
.	8cc	8aa#	.	4eee
.	4b	4.bb	.	.
.	.	.	.	16ddd#
.	.	.	.	16ccc#
.	16B	.	.	8ddd#
.	16b	.	.	.
.	16B	8aa	.	8ccc
.	16b	.	.	.
=63	=63	=63	=63	=63
2..r	16B	4ff#	1r	4aa
.	16b	.	.	.
.	16B	.	.	.
.	16b	.	.	.
.	16B	8gg	.	8bb
.	16b	.	.	.
.	16B	8ee	.	8gg
.	16b	.	.	.
.	16B	8ff#	.	8aa
.	16b	.	.	.
.	16B	8dd#	.	8ff#
.	16b	.	.	.
.	8B	8ee	.	8gg
8BB	8g	8b	.	8ee
=64	=64	=64	=64	=64
16CC	4f#	4a	1r	4dd#
16C	.	.	.	.
16CC	.	.	.	.
16C	.	.	.	.
16CC	8g	8a#	.	8ee
16C	.	.	.	.
16CC	16g	16ee	.	8a#
16C	16e	16e	.	.
2BB	8d#	8f#	.	8b
.	8e	8g	.	8a#
.	8d#	8f#	.	8b
.	16B	8aa	.	8ccc
.	16b	.	.	.
=65	=65	=65	=65	=65
2..r	16B	8.ff#	1r	8.aa
.	16b	.	.	.
.	16B	.	.	.
.	16b	32ee	.	32gg
.	.	32ff#	.	32aa
.	16B	8gg	.	8bb
.	16b	.	.	.
.	16B	8ee	.	8gg
.	16b	.	.	.
.	16B	8ff#	.	8aa
.	16b	.	.	.
.	16B	8dd#	.	8ff#
.	16b	.	.	.
.	8B	8ee	.	8gg
8BB	8g	8b	.	8ee
=66	=66	=66	=66	=66
16CC	4f#	4a	1r	4dd#
16C	.	.	.	.
16CC	.	.	.	.
16C	.	.	.	.
16CC	8g	8a#	.	8ee
16C	.	.	.	.
16CC	16g	16ee	.	8a#
16C	16e	16e	.	.
[2BB	8d#	8f#	.	8b
.	8e	8g	.	8a#
.	8d#	8f#	.	8b
.	8e	8g	.	8a#
=67	=67	=67	=67	=67
2.BB]	8d#	8f#	1r	8b
.	8e	8g	.	8a#
.	8d#	8f#	.	8b
.	8e	8g	.	8a#
.	4d#	4f#	.	4b
4r	4r	4r	.	8bb
.	.	.	.	8b
=68	=68	=68	=68	=68
2EE 2BB	4r	4e 4G#	1r	4g#
.	2E 2B	4A 4d#	.	8a
.	.	.	.	8f#
2BB 2EE	.	4.G# 4.e	.	16e
.	.	.	.	16f#
.	.	.	.	16g#
.	.	.	.	16a
.	[4E 4B	.	.	8b
.	.	8e	.	8ee
=69	=69	=69	=69	=69
2BB 2EE	4E 4B]	8d#	1r	8dd#
.	.	4f#	.	4ff#
.	2E 2B	.	.	.
.	.	16d#	.	16dd#
.	.	16B	.	16b
2BB 2EE	.	16e	.	16ee
.	.	16f#	.	16ff#
.	.	16g#	.	16gg#
.	.	16a	.	16aa
.	[4B 4E	8b	.	8bb
.	.	16g#	.	16gg#
.	.	16e	.	16ee
=70	=70	=70	=70	=70
2EE 2BB	4B 4E]	8d#	1r	8dd#
.	.	4f#	.	4ff#
.	2E 2B	.	.	.
.	.	16d#	.	16dd#
.	.	16B	.	16b
2EE 2BB	.	8e	.	8ee
.	.	4e	.	4ee
.	[4B 4E	.	.	.
.	.	16g#	.	16gg#
.	.	16e	.	16ee
=71	=71	=71	=71	=71
2BB 2EE	4B 4E]	16.d#	1r	16.dd#
.	.	32e	.	32ee
.	.	16.f#	.	16.ff#
.	.	32g#	.	32gg#
.	2B 2E	16.a	.	16.aa
.	.	32f#	.	32ff#
.	.	16.a	.	16.aa
.	.	32f#	.	32ff#
2BB 2EE	.	16.e	.	16.ee
.	.	32f#	.	32ff#
.	.	16.g#	.	16.gg#
.	.	32a	.	32aa
.	[4B 4E	16.b	.	16.bb
.	.	32g#	.	32gg#
.	.	16.b	.	16.bb
.	.	32g#	.	32gg#
=72	=72	=72	=72	=72
2BB 2EE	4B 4E]	16.a	1r	16.aa
.	.	32cc#	.	32ccc#
.	.	16.g#	.	16.gg#
.	.	32b	.	32bb
.	2E 2B	16.f#	.	16.ff#
.	.	32a	.	32aa
.	.	16.f#	.	16.ff#
.	.	32d#	.	32dd#
2BB 2EE	.	8e	.	8ee
.	.	4b	.	4bb
.	[4B 4E	.	.	.
.	.	16g#	.	16gg#
.	.	16e	.	16ee
=73	=73	=73	=73	=73
2BB 2EE	4B 4E]	16.f#	1r	16.ff#
.	.	32a	.	32aa
.	.	16.f#	.	16.ff#
.	.	32d#	.	32dd#
.	2B 2E	16.B	.	16.b
.	.	32d#	.	32dd#
.	.	16.f#	.	16.ff#
.	.	32d#	.	32dd#
2BB 2EE	.	8e	.	8ee
.	.	4e	.	4ee
.	[4B 4E	.	.	.
.	.	16g#	.	16gg#
.	.	16e	.	16ee
=74	=74	=74	=74	=74
2BB 2EE	4B 4E]	16.d#	1r	16.dd#
.	.	32e	.	32ee
.	.	16.f#	.	16.ff#
.	.	32g#	.	32gg#
.	2B 2E	16.a	.	16.aa
.	.	32f#	.	32ff#
.	.	16.a	.	16.aa
.	.	32f#	.	32ff#
2EE 2BB	.	16.e	.	16.ee
.	.	32f#	.	32ff#
.	.	16.g#	.	16.gg#
.	.	32a	.	32aa
.	[4B 4E	16.b	.	16.bb
.	.	32g#	.	32gg#
.	.	16.b	.	16.bb
.	.	32g#	.	32gg#
=75	=75	=75	=75	=75
2BB 2EE	4B 4E]	16.a	1r	16.aa
.	.	32cc#	.	32ccc#
.	.	16.g#	.	16.gg#
.	.	32b	.	32bb
.	2B 2E	16.f#	.	16.ff#
.	.	32a	.	32aa
.	.	16.f#	.	16.ff#
.	.	32d#	.	32dd#
2BB 2EE	.	8e	.	8ee
.	.	4b	.	4bb
.	[4B 4E	.	.	.
.	.	16g#	.	16gg#
.	.	16e	.	16ee
=76	=76	=76	=76	=76
2EE 2BB	4B 4E]	16.f#	1r	16.ff#
.	.	32a	.	32aa
.	.	16.f#	.	16.ff#
.	.	32d#	.	32dd#
.	2B 2E	16.B	.	16.b
.	.	32d#	.	32dd#
.	.	16.f#	.	16.ff#
.	.	32d#	.	32dd#
2BB 2EE	.	8e	.	8ee
.	.	4e	.	4ee
.	[4B 4E	.	.	.
.	.	8b	.	8bb
=77	=77	=77	=77	=77
2BB 2EE	4B 4E]	8B	1r	8B
.	.	4a	.	4aa
.	2B 2E	.	.	.
.	.	16f#	.	16ff#
.	.	16d#	.	16dd#
2BB 2EE	.	8e	.	8ee
.	.	4e	.	4ee
.	4B 4E	.	.	.
.	.	16e	.	8bb
.	.	16f#	.	.
=78	=78	=78	=78	=78
4BB 4EE	8E	4g	1r	4b
.	8e	.	.	.
2.r	8e	8a	.	8cc
.	8e	8f#	.	8a
.	8E	16e	.	16g
.	.	16d#	.	16f#
.	8e	16e	.	16g
.	.	16f#	.	16a
.	8e	8g	.	8b
.	8e	8g	.	8ee
=79	=79	=79	=79	=79
1r	8E	8f#	1r	8dd#
.	8e	8a	.	4ff#
.	8e	8cc	.	.
.	8e	16a	.	16dd#
.	.	16f#	.	16b
.	8E	8g	.	8ee
.	8e	4b	.	4gg
.	8e	.	.	.
.	8e	16e	.	8ee
.	.	16f#	.	.
=80	=80	=80	=80	=80
1r	8E	4g	1r	4b
.	8e	.	.	.
.	8e	8a	.	8cc
.	8e	8f#	.	8a
.	8E	16e	.	16g
.	.	16d#	.	16f#
.	8e	16e	.	16g
.	.	16f#	.	16a
.	8e	8g	.	8b
.	8e	8g	.	8ee
=81	=81	=81	=81	=81
2..r	8e	8g	1r	8b
.	8r	8r	.	8ee
.	8e	8g	.	8b
.	8r	8r	.	8ee
.	8e	8g	.	8b
.	8r	8r	.	8ee
.	8e	8g	.	8b
8B	8g	8dd	.	8gg
=82	=82	=82	=82	=82
4c	4cc	4g	1r	4ee
8F	8dd	8a	.	8ff
8G	8b	8f 8G	.	8dd
4C	4cc	4e 4G	.	4cc
8r	8r	8r	.	8r
8BB	8d	8G	.	8g
=83	=83	=83	=83	=83
8C	8G	8c	1r	8e
8AA	8c	8e	.	8a
8D	8B	8d	.	8g
8D	8A	8c	.	8f#
4GG	4G	4B	.	4g
4r	8r	8r	.	8r
.	8g	8b	.	8dd
=84	=84	=84	=84	=84
2..r	4e	8cc	1r	8ee
.	.	8b-	.	4gg
.	8f	8a	.	.
.	8d	8b	.	4ff
.	4c	4cc	.	.
.	.	.	.	16ee
.	.	.	.	16dd
.	8r	8r	.	8ee
8E	8G	8c	.	8ccc
=85	=85	=85	=85	=85
8F	8A	8c	1r	8d
8r	8r	8r	.	8r
8G	8B 8d	8f 8G	.	8g 8G
8r	8r	8r	.	8r
4C	4e 4c	4G 4e	.	4c 4e
8r	8r	4r	.	4r
8E	8G	.	.	.
=86	=86	=86	=86	=86
4C	4E	4r	1r	1r
8D	8F	16.r	.	.
.	.	32G	.	.
8GG	8D	16.A	.	.
.	.	32B	.	.
4EE	4C	16.c	.	.
.	.	32d	.	.
.	.	16.e	.	.
.	.	32f	.	.
4r	8r	8g	.	.
.	8e	8g	.	.
=87	=87	=87	=87	=87
1r	4c	4e	1r	4r
.	8d	8f	.	16.r
.	.	.	.	32g
.	8G	8d	.	16.a
.	.	.	.	32b
.	4E	4c	.	16.cc
.	.	.	.	32dd
.	.	.	.	16.ee
.	.	.	.	32ff
.	16.r	8r	.	8gg
.	32C	.	.	.
.	16.D	[8cc	.	8ccc
.	32E	.	.	.
=88	=88	=88	=88	=88
4r	16.F	8cc]	1r	4aa
.	32G	.	.	.
.	16.A	8ff	.	.
.	32B	.	.	.
16.r	8c	8ee	.	8gg
32CC	.	.	.	.
16.DD	4c	4r	.	8cc
32EE	.	.	.	.
16.FF	.	.	.	4a
32GG	.	.	.	.
16.AA	8f	4c	.	.
32BB	.	.	.	.
8C	8e	.	.	16.g
.	.	.	.	32gg
8C	8G 8g	8e 8cc	.	16.ee
.	.	.	.	32cc
=89	=89	=89	=89	=89
[2CC	4.f 4.G	4.d 4.b	1r	16.b
.	.	.	.	32cc
.	.	.	.	16.dd
.	.	.	.	32ee
.	.	.	.	16.ff
.	.	.	.	32ee
.	8B	8d	.	16.ff
.	.	.	.	32aa
8CC 8C]	8c	8e	.	16.ee
.	.	.	.	32gg
4.r	8d	8f	.	16.dd
.	.	.	.	32ff
.	8e	8g	.	16.cc
.	.	.	.	32gg
.	8G 8g	8cc 8e	.	16.ee
.	.	.	.	32cc
=90	=90	=90	=90	=90
[2C 2CC	4.f 4.G	4.d 4.b	1r	16.b
.	.	.	.	32cc
.	.	.	.	16.dd
.	.	.	.	32ee
.	.	.	.	16.ff
.	.	.	.	32ee
.	8f	8b	.	16.ff
.	.	.	.	32aa
2C 2CC]	8g	8b-	.	16.ee
.	.	.	.	32ff
.	8f	8a	.	16.gg
.	.	.	.	32aa
.	8e	8g	.	16.bb-
.	.	.	.	32aa
.	8e	8g	.	16.bb-
.	.	.	.	32ddd
=91	=91	=91	=91	=91
2C 2CC	8f	8a	1r	16.aa
.	.	.	.	32ccc
.	8g	8b-	.	16.gg
.	.	.	.	32bb-
.	8a	8cc	.	16.ff
.	.	.	.	32ccc
.	8f	8cc	.	16.aa
.	.	.	.	32ff
2CC#	4g	4b-	.	16.ee
.	.	.	.	32ff
.	.	.	.	16.gg
.	.	.	.	32aa
.	4e	8g	.	16.bb-
.	.	.	.	32aa
.	.	8e	.	16.bb-
.	.	.	.	32gg
=92	=92	=92	=92	=92
4DD	8d	8f	1r	16.ff
.	.	.	.	32aa
.	8e	8g	.	16.ee
.	.	.	.	32gg
2.r	8f	8a	.	16.dd
.	.	.	.	32aa
.	8B	8d	.	16.gg
.	.	.	.	32ff
.	8c	8e	.	16.ee
.	.	.	.	32gg
.	8d	8f	.	16.dd
.	.	.	.	32ff
.	8e	4g	.	16.cc
.	.	.	.	32gg
.	8E	.	.	16.ff
.	.	.	.	32ee
=93	=93	=93	=93	=93
2r	4.F	2a	1r	16.dd
.	.	.	.	32ff
.	.	.	.	16.aa
.	.	.	.	32gg
.	.	.	.	16.ff
.	.	.	.	32ee
.	8F#	.	.	16.dd
.	.	.	.	32cc
16GG	4G	4d	.	4g
16G	.	.	.	.
16GG	.	.	.	.
16G	.	.	.	.
16GG	4r	8r	.	8r
16G	.	.	.	.
16GG	.	8ee	.	8gg
16G	.	.	.	.
=94	=94	=94	=94	=94
16GG	4.r	8.cc#	1r	8.ee
16G	.	.	.	.
16GG	.	.	.	.
16G	.	32b	.	32dd
.	.	32cc#	.	32ee
16GG	.	8dd	.	8ff
16G	.	.	.	.
16GG	8f	8b	.	8dd
16G	.	.	.	.
16GG	8e	8.cc	.	8cc
16G	.	.	.	.
16GG	8f#	.	.	8ee
16G	.	32dd	.	.
.	.	32cc	.	.
16GG	8g	8b	.	8dd
16G	.	.	.	.
16GG	8g	[8g	.	8ee
16G	.	.	.	.
=95	=95	=95	=95	=95
16GG	8.e	16g]	1r	8.cc#
16G	.	16b-	.	.
16GG	.	16a	.	.
16G	32d	16g	.	32b
.	32e	.	.	32cc#
16GG	8f	8f	.	8dd
16G	.	.	.	.
16GG	8d	8f	.	16b
16G	.	.	.	32a
.	.	.	.	32b
16GG	8e	8e	.	8cc
16G	.	.	.	.
16GG	8c	8e-	.	16f#
16G	.	.	.	32e
.	.	.	.	32f#
16GG	8B	8d	.	8g
16G	.	.	.	.
16GG	8B	8gg	.	8gg
16G	.	.	.	.
=96	=96	=96	=96	=96
16GG	8.c	4ff#	1r	4aa
16G	.	.	.	.
16GG	.	.	.	.
16G	32B	.	.	.
.	32c	.	.	.
16GG	8.d	4ff	.	4bb
16G	.	.	.	.
16GG	.	.	.	.
16G	32c	.	.	.
.	32d	.	.	.
16GG	8e	8.ee	.	4ccc
16G	.	.	.	.
16GG	8cc	.	.	.
16G	.	32ff	.	.
.	.	32ee	.	.
16GG	8b	8dd	.	8ddd
16G	.	.	.	.
16GG	8cc	8cc	.	8eee
16G	.	.	.	.
=97	=97	=97	=97	=97
8GG	8dd	8b 8d	1r	24fff
.	.	.	.	24ddd
.	.	.	.	24bb
8r	8r	8r	.	24gg
.	.	.	.	24bb
.	.	.	.	24ddd
8GG	8G 8f	8b 8d	.	24fff
.	.	.	.	24ddd
.	.	.	.	24bb
8r	8r	8r	.	24gg
.	.	.	.	24bb
.	.	.	.	24ddd
8GG	8f 8G	8d 8b	.	8fff
8r	4r	4r	.	8r
8r	.	.	.	8r
8r	8a	[8cc	.	8ee
=98	=98	=98	=98	=98
1r	4f	8cc]	1r	4.dd
.	.	16b	.	.
.	.	16a	.	.
.	8g	8b	.	.
.	8e	8cc#	.	8ee
.	8d	4dd	.	4ff
.	8a	.	.	.
.	8dd	8r	.	8r
.	[8cc	8ee	.	8aa
=99	=99	=99	=99	=99
2..r	8cc]	4.dd	1r	4ff#
.	16b	.	.	.
.	16a	.	.	.
.	8b	.	.	8gg
.	4a	8cc	.	8ff
.	.	4.b	.	4dd#
.	16g	.	.	.
.	16f#	.	.	.
.	8g	.	.	8ee
[8F	16f	8a	.	8dd
.	16e	.	.	.
=100	=100	=100	=100	=100
8F]	8d	4.g	1r	4b
16E	16e	.	.	.
16D	16d	.	.	.
8E	8c	.	.	8cc
8F#	8c	8c	.	8aa
4G	4c	4e	.	4cc
4GG	8B	8f	.	8dd
.	8f	8d	.	8b
=101	=101	=101	=101	=101
4C	16e	16e 16c	1r	4cc
.	16g	16c 16e	.	.
.	16g	16c 16e	.	.
.	16g	16c 16e	.	.
8r	16g	16c 16e	.	8r
.	16g	16c 16e	.	.
16CC	16g	16c 16e	.	8cc
16C	16g	16c 16e	.	.
8GG	16g	16f 16d	.	8b
.	16g	16f 16d	.	.
8B	16g	16f 16d	.	8ff
.	16g	16f 16d	.	.
8r	16g	16d 16f	.	8ee
.	16g	16d 16f	.	.
16B	16g	16d 16f	.	8dd
32A	16g	16f 16d	.	.
32B	.	.	.	.
=102	=102	=102	=102	=102
8c	16g	16e	1r	8cc
.	16g	16e	.	.
8CC	16g	16e	.	8ee
.	16g	16e	.	.
8r	16g	16c 16e	.	8gg
.	16g	16e 16c	.	.
16CC	16g	16c 16e	.	8ccc
16C	16g	16c 16e	.	.
8GG	16g	16d 16f	.	8bb
.	16g	16d 16f	.	.
8B	16g	16d 16f	.	8fff
.	16g	16f 16d	.	.
8r	16g	16d 16f	.	8eee
.	16g	16d 16f	.	.
16B	16g	16f 16d	.	8ddd
32A	16g	16f 16d	.	.
32B	.	.	.	.
=103	=103	=103	=103	=103
16c	4g	4e	1r	8ccc
16c	.	.	.	.
16c	.	.	.	8eee
16c	.	.	.	.
16c	8r	8r	.	8ggg
16c	.	.	.	.
16c	16e	16cc	.	8eee
16c	32d	32b	.	.
.	32e	32cc	.	.
16c	8f	8b	.	8ddd
16c	.	.	.	.
16c	8b	8ff	.	8fff
16c	.	.	.	.
16c	8b	8ee	.	8eee
16c	.	.	.	.
16c	8b	8dd	.	8ddd
16c	.	.	.	.
=104	=104	=104	=104	=104
16c	4cc	4cc	1r	16eee
16c	.	.	.	16ggg
16c	.	.	.	16eee
16c	.	.	.	16ggg
16c	8r	8r	.	16eee
16c	.	.	.	16ggg
16c	8g	16ee	.	16eee
16c	.	32dd	.	16ccc
.	.	32ee	.	.
16c	8f	8dd	.	16bb
16c	.	.	.	16ccc
16c	8f	8b	.	16ddd
16c	.	.	.	16eee
16c	8d	8b	.	16fff
16c	.	.	.	16aaa
16c	8d	8b	.	16ggg
16c	.	.	.	16fff
=105	=105	=105	=105	=105
8c	4e	8cc	1r	8eee
8E	.	8g	.	8ccc
8F	4.r	8a	.	8aa
8A	.	4cc	.	8ff
8G	.	.	.	8ee
8G	8c	8e	.	8ccc
8G	8d	8f	.	8G
8GG	8f	8d	.	8B
=106	=106	=106	=106	=106
2.AA	2.f#	2c	1r	16c
.	.	.	.	16f#
.	.	.	.	16a
.	.	.	.	16b
.	.	.	.	16cc
.	.	.	.	16ff#
.	.	.	.	16aa
.	.	.	.	16bb
.	.	4.ff#	.	8.ccc
.	.	.	.	16aa
4r	4r	.	.	8ccc
.	.	8r	.	8r
=107	=107	=107	=107	=107
2.BB	2.G 2.d	2G 2f	1r	16G
.	.	.	.	16g
.	.	.	.	16b
.	.	.	.	16dd
.	.	.	.	16ff
.	.	.	.	16gg
.	.	.	.	16bb
.	.	.	.	16ddd
.	.	4.ff 4.dd	.	8.fff
.	.	.	.	16ddd
8r	8r	.	.	16fff
.	.	.	.	16r
8r	8r	8ee	.	8gg
=108	=108	=108	=108	=108
8r	8r	4cc	1r	4ee
8e	8g	.	.	.
4c	4e	8r	.	8r
.	.	8dd	.	8ff
8r	8r	4g	.	4dd
8d	8f	.	.	.
4G	4d	8r	.	8r
.	.	8cc	.	8ee
=109	=109	=109	=109	=109
8r	8r	4e	1r	4cc
8c	8e	.	.	.
4E	4c	8r	.	8r
.	.	8e	.	8cc#
8r	8r	4f	.	4dd
8E	8c#	.	.	.
4F	4d	8r	.	8r
.	.	8cc#	.	8ee
=110	=110	=110	=110	=110
8r	8r	4dd	1r	4ff
8c#	8e	.	.	.
4d	4f	8r	.	8r
.	.	8ee	.	8gg#
8r	8r	4ff	.	4aa
8e	8g#	.	.	.
4f	4a	4r	.	4r
=111	=111	=111	=111	=111
4r	4r	4g	1r	4cc
4G	4c	4r	.	4r
4r	4r	4g	.	4b
4G	4B	4r	.	4r
=112	=112	=112	=112	=112
4r	4r	2A-	1r	2c
2AA-	2C	.	.	.
.	.	2cc	.	2ee-
[4c	[4e-	.	.	.
=113	=113	=113	=113	=113
4c]	4e-]	2a-	1r	2cc
2A-	2c	.	.	.
.	.	2aa-	.	2ccc
[4a-	[4cc	.	.	.
=114	=114	=114	=114	=114
4a-]	4cc]	2ee-	1r	2ff#
2e-	2f#	.	.	.
.	.	2cc	.	2ee-
[4c	[4e-	.	.	.
=115	=115	=115	=115	=115
4c]	4e-]	2a	1r	2cc
2A	2c	.	.	.
.	.	2f#	.	2a
[4F#	[4A	.	.	.
=116	=116	=116	=116	=116
4F#]	4A]	2cc	1r	2aa
2c	2a	.	.	.
.	.	2r	.	2r
4r	4r	.	.	.
=117	=117	=117	=117	=117
1GG	2c	2e	1r	2.g
.	4d 4B	4f	.	.
.	4B	4d	.	8f
.	.	.	.	8d
=118	=118	=118	=118	=118
4C	16c	16e	1r	4c
.	16g	16e	.	.
.	16g	16e	.	.
.	16g	16e	.	.
8r	16g	16c 16e	.	8r
.	16g	16e 16c	.	.
16CC	16g	16e 16c	.	8cc
16C	16g	16c 16e	.	.
8GG	16g	16d 16f	.	8b
.	16g	16f 16d	.	.
8B	16g	16f 16d	.	8ff
.	16g	16d 16f	.	.
8r	16g	16d 16f	.	8ee
.	16g	16f 16d	.	.
16B	16g	16d 16f	.	8dd
32A	16g	16f 16d	.	.
32B	.	.	.	.
=119	=119	=119	=119	=119
8c	16g	16e	1r	8cc
.	16g	16e	.	.
8CC	16g	16e	.	8ee
.	16g	16e	.	.
8r	16g	16c 16e	.	8gg
.	16g	16e 16c	.	.
16CC	16g	16c 16e	.	8ccc
16C	16g	16e 16c	.	.
8GG	16g	16f 16d	.	8bb
.	16g	16f 16d	.	.
8B	16g	16f 16d	.	8fff
.	16g	16d 16f	.	.
8r	16g	16f 16d	.	8eee
.	16g	16f 16d	.	.
16B	16g	16f 16d	.	8ddd
32A	16g	16f 16d	.	.
32B	.	.	.	.
=120	=120	=120	=120	=120
16c	8g	16e	1r	8ccc
16g	.	16cc 16e	.	.
16g	8e	16e 16cc	.	8eee
16g	.	16cc 16e	.	.
16g	8c	16e 16cc	.	8ggg
16g	.	16e 16cc	.	.
16g	8ee	16cc 16e	.	8cccc
16g	.	16e 16cc	.	.
16g	8dd	8ff	.	16bbb
16g	.	.	.	16ggg
16g	8dd	8ff	.	16bbb
16g	.	.	.	16ggg
16g	8.dd	8.ff	.	16bbb
16g	.	.	.	16ggg
16g	.	.	.	16bbb
16g	32cc	32ee	.	16ggg
.	32dd	32ff	.	.
=121	=121	=121	=121	=121
16g	8cc	8ee	1r	8cccc
16g	.	.	.	.
16g	8cc	8ee	.	8cccc
16g	.	.	.	.
16g	8.cc	8.ee	.	8cccc
16g	.	.	.	.
16g	.	.	.	8cccc
16g	32b	32dd	.	.
.	32cc	32ee	.	.
16g	8dd	8ff	.	16bbb
16g	.	.	.	16ggg
16g	8dd	8ff	.	16bbb
16g	.	.	.	16ggg
16g	8.dd	8.ff	.	16bbb
16g	.	.	.	16ggg
16g	.	.	.	16bbb
16g	32cc	32ee	.	16ggg
.	32dd	32ff	.	.
=122	=122	=122	=122	=122
8c	8cc	8ee	1r	8cccc
8c	8e	8ee	.	8cccc
8c	8g	8ee	.	8cccc
8E	8e	8ee	.	8ee
8.F	8.f	8.ff	.	8.ff
32E	32e	32ee	.	32ee
32F	32f	32ff	.	32ff
8G	8g	8gg	.	8gg
8G	8d	8f	.	8b
=123	=123	=123	=123	=123
8C	8e	8e	1r	8cc
8GG	8d	8b	.	8ff
8C	8c	8cc	.	8ee
8GG	8d 8G	8ff	.	16bb
.	.	.	.	32aa
.	.	.	.	32bb
4CC	4e 4G	4ee	.	4ccc
4r	4r	8r	.	8r
.	.	8b	.	8gg
=124	=124	=124	=124	=124
8r	8r	4cc	1r	4ee
8B	8g	.	.	.
4c	4e	8r	.	8r
.	.	8B	.	8g
8r	8r	4c	.	4e
8BB	8G	.	.	.
4C	4E	8r	.	8r
.	.	8b	.	8gg
=125	=125	=125	=125	=125
8r	8r	4cc	2..r	4ee
8B	8g	.	.	.
8c	8e	2r	.	2r
8A	8f	.	.	.
8B	8d	.	.	.
8G	8e	.	.	.
8A	8c	8r	.	8r
8F#	8d	8r	8r	8r
=126	=126	=126	=126	=126
8C	8e	8e	1r	8cc
8GG	8d	8b	.	8ff
8C	8c	8cc	.	8ee
8GG	8d 8G	8dd 8ff	.	16bb
.	.	.	.	32aa
.	.	.	.	32bb
4CC	4e 4G	4ee 4cc	.	4ccc
4GG	4G 4d	4b 4d	.	4gg 4b
=127	=127	=127	=127	=127
4CC	4e 4G	4e 4cc	1r	4cc 4ee
2.r	2.r	2.r	.	2r
.	.	.	.	8r
.	.	.	.	8r
==	==	==	==	==
*-	*-	*-	*-	*-
!!!RWG: This file only contains pitch and duration data.
!!!RWG: Transposing instruments are not transposed.
!!!RWG: Key is interpreted using the Humdrum key tool.
!!!EMD: Converted from MuseData to Humdrum Jul 30, 1999, by Bret Aarden using muse2kern.
!!!VTS: 3976961609
